src/icons/open.svg

<svg xmlns="http://www.w3.org/2000/svg" width="512" height="512" viewBox="0 0 512 512">
    <path d="M405.34 398.832H106.66V100.168H240V57.5H106.66C83.191 57.5 64 76.697 64 100.168v298.664c0 23.471 19.191 42.668 42.66 42.668h298.68c23.469 0 42.66-19.197 42.66-42.668V265.5h-42.66v133.332zM288 57.5v42.668h87.474L159.999 315.633l29.866 29.866 215.476-215.47V217.5H448v-160H288z"/>
</svg>

<?xml version="1.0" encoding="UTF-8"?>
<svg width="512px" height="512px" viewBox="0 0 512 512" version="1.1" xmlns="http://www.w3.org/2000/svg" xmlns:xlink="http://www.w3.org/1999/xlink">
    <!-- Generator: Sketch 62 (91390) - https://sketch.com -->
    <title>open</title>
    <desc>Created with Sketch.</desc>
    <g id="open" stroke="none" stroke-width="1" fill="none" fill-rule="evenodd">
        <path d="M405.34,398.832 L106.66,398.832 L106.66,100.168 L240,100.168 L240,57.5 L106.66,57.5 C83.191,57.5 64,76.697 64,100.168 L64,398.832 C64,422.303 83.191,441.5 106.66,441.5 L405.34,441.5 C428.809,441.5 448,422.303 448,398.832 L448,265.5 L405.34,265.5 L405.34,398.832 L405.34,398.832 Z M288,57.5 L288,100.168 L375.474,100.168 L159.999,315.633 L189.865,345.499 L405.341,130.029 L405.341,217.5 L448,217.5 L448,57.5 L288,57.5 Z" id="Shape" fill="#000000" fill-rule="nonzero"></path>
    </g>
</svg>
